X: 1
T: Cave Of Many Colours, The
M: 3/2
L: 1/8
R: three-two
K: Dmaj
M:7/8
fge d2 AG|F{G}FD d2 AG|{FG}FED =c2 cd|
{Bc}BAG =c2 cd|{Bc}BAG  (F/G/A) cd|FGE D2D2:|
M:5/8
GFD GF|GFD ED|\
M:7/8
GAB cd ef|\
M:2/4
d2 ef|
M:7/8
g>dd gd ad|bag (f/g/a) cd|FGE D2D2:|
